X: 1
T: Robertson's Reel
C: by Tom Anderson
%D:1938
R: reel
S: Fiddle Hell Online 2022-3-26 handout for Fiddle Hell jam session
B: the Portland Collection 1 p.178
Z: 2022 John Chambers <jc:trillian.mit.edu>
M: C|
L: 1/8
K: A
AB |\
"A"c2Bc e2cB | "D"ABAF "A"E2AB |1,3 c2Bc ecAc | "D"B6 AB :|2,4 cBce "E"BABe | "A"A6 :|
|: cd | "A"e2ce a2ga | "D"fecd "A"e2cd | e2ce a2ga | "F#m"f6 ||
|  ef | "A"a2A2 A2cB | "D"ABAF "A"E2AB | cBce "E"BABe | "A"A6 :|
